X:7
T: Shan dui shan lai ya dui ya
N: C1507
O: China, Sichuan, Huili
S: II, 253, 2)]
R: Shange]
M: 4/4
L: 1/32
K: E
f4e4c16-c4f2c2 | f4c2c2B4c2e2 | c16-c4B2G2F2E2z4 |
(3c4B4c4G16-G4F2E2 | C4c2G2G2G2GBG2G8 | F2E2C4-C8z16 |
f4e4c12B2e2 | B4B2c2B2c2e4 | c16-c4B2G2F2E2z4 |
(3c4B4c4G16-G4F2E2 | C4G2B2B2c2G2G2B4G2B2G8 | F2E2C4-C24

